img/icon-arr1.svg

<svg width="12" height="32" viewBox="0 0 12 32" fill="none" xmlns="http://www.w3.org/2000/svg">
<path d="M8.20216 1.12359C8.30052 1.06098 8.36131 1.03054 8.42526 1.0117C9.65968 0.647861 9.67903 0.65027 9.53408 2.06289C9.36253 3.73443 9.19358 5.40819 8.94774 7.06886C8.76568 8.299 8.43742 9.50496 8.22244 10.7307C8.08587 11.5096 8.04892 12.3069 7.947 13.0931C7.66436 15.2723 7.37005 17.4499 7.08268 19.6286C6.98257 20.3875 6.88397 21.1468 6.79791 21.9076C6.78236 22.0453 6.83099 22.1909 6.85002 22.333C6.98328 22.2551 7.12855 22.1932 7.248 22.0968C8.36013 21.1984 9.44913 20.2671 10.5921 19.4135C10.8302 19.2357 11.3259 19.2076 11.5903 19.3449C11.9638 19.5388 12.151 19.9705 11.8514 20.4346C11.4342 21.0809 11.0927 21.8014 10.5864 22.3608C8.16387 25.0378 5.69447 27.6691 3.24749 30.3223C2.85694 30.7458 2.50625 31.209 2.11475 31.6315C2.01654 31.7374 1.77441 31.8469 1.69965 31.7955C1.57254 31.7082 1.47662 31.5019 1.45301 31.3327C1.15254 29.181 0.870538 27.0266 0.577169 24.8739C0.390538 23.5042 0.190564 22.1364 0.00464234 20.7667C-0.0106735 20.654 0.0131679 20.522 0.0576153 20.4166C0.272037 19.908 0.489459 19.4001 0.728591 18.9038C0.809828 18.7352 0.957539 18.6014 1.07485 18.4516C1.19841 18.6172 1.36167 18.7651 1.43872 18.9514C1.79012 19.8011 2.10946 20.665 2.45904 21.5155C2.53791 21.7074 2.65965 21.9544 2.81904 22.0165C2.99675 22.0857 3.28238 22.2134 3.3423 21.7182C3.64025 19.2551 3.97286 16.7956 4.3436 14.3431C4.69396 12.0252 5.10149 9.71669 5.49433 7.40592C5.72383 6.05581 5.92215 4.69642 6.23131 3.36548C6.47818 2.3028 7.10589 1.50177 8.20216 1.12359ZM7.2266 12.2058C7.32292 11.6238 7.4235 11.0425 7.51097 10.4592C7.52376 10.3738 7.4741 10.2783 7.45334 10.1875C7.42594 10.2187 7.40289 10.2563 7.37044 10.2801C7.01747 10.54 6.68999 10.9448 6.30276 11.0212C5.73165 11.1341 5.61765 11.5483 5.50689 11.9539C5.35262 12.5188 5.29444 13.1127 5.2076 13.6962C5.1907 13.81 5.20365 14.0193 5.24968 14.0348C5.36344 14.0733 5.52402 14.0633 5.63052 14.0041C5.90755 13.8501 6.14518 13.5895 6.43547 13.4979C7.0076 13.3174 7.26339 12.9622 7.2266 12.2058ZM6.07033 14.7603C5.68499 15.0565 5.21723 15.288 4.94004 15.6692C4.71591 15.9775 4.69981 16.4624 4.6342 16.8764C4.60128 17.0842 4.66357 17.3083 4.68283 17.5252C4.8641 17.447 5.05262 17.3827 5.22473 17.2866C5.40347 17.1869 5.55662 17.0359 5.73789 16.9428C6.45702 16.5736 7.12807 16.1954 6.94981 15.1511C6.90149 14.8684 7.00247 14.5582 7.03499 14.2606C6.73752 14.4021 6.44012 14.5436 6.07033 14.7603ZM7.37107 9.20046C7.66018 8.5789 7.95418 7.95972 8.23429 7.33372C8.29381 7.20059 8.30258 7.0428 8.33471 6.89643C8.17113 6.94955 7.98923 6.97175 7.84823 7.0627C7.61589 7.21268 7.43447 7.4842 7.18847 7.56873C6.28128 7.88062 6.04586 8.68827 5.80034 9.49188C5.7547 9.64104 5.80997 9.82351 5.81865 9.99068C5.98223 9.94496 6.15836 9.92555 6.3067 9.84834C6.64468 9.67254 6.969 9.46828 7.37107 9.20046ZM5.13094 20.5456C4.86583 20.7211 4.51704 20.8385 4.35757 21.0871C4.17173 21.377 4.15152 21.7815 4.05946 22.1363C4.29836 22.0569 4.53946 21.9838 4.77568 21.8963C5.02554 21.8038 5.26752 21.6879 5.51865 21.5997C5.95894 21.4451 6.56731 20.4547 6.32865 20.1705C5.9441 19.7127 5.68247 20.418 5.3167 20.3989C5.28007 20.3971 5.24107 20.4455 5.13094 20.5456ZM6.7207 5.66918C6.60031 5.94234 6.45418 6.2072 6.36994 6.49187C6.32573 6.64136 6.38984 6.82547 6.40507 6.99387C6.53818 6.92398 6.67799 6.8651 6.80313 6.78214C7.12752 6.56703 7.422 6.28244 7.77094 6.13237C8.47855 5.82813 8.39905 5.15788 8.51281 4.57538C8.51802 4.54898 8.25884 4.40336 8.21194 4.43921C7.72839 4.80924 7.26323 5.20525 6.7207 5.66918ZM7.08205 3.18975C7.03389 3.41835 6.98439 3.64661 6.93797 3.87554C6.90884 4.01944 6.88428 4.1644 6.85768 4.30888C7.02157 4.24392 7.22021 4.21966 7.34273 4.10635C7.70028 3.77538 8.08018 3.44688 8.34884 3.04355C8.54171 2.75411 8.58039 2.3487 8.66155 1.98861C8.67466 1.93027 8.55252 1.77462 8.48968 1.77265C8.10134 1.76051 7.18286 2.6038 7.08205 3.18975ZM5.85354 18.7425C6.35889 18.6243 6.65605 18.3217 6.6461 17.7584C6.64397 17.641 6.61113 17.5241 6.59249 17.4069C6.49318 17.4488 6.38841 17.4803 6.29565 17.5342C5.84541 17.7959 5.4101 18.0886 4.94707 18.3223C4.46289 18.5667 4.29039 18.954 4.33949 19.4786C4.34952 19.5861 4.40297 19.6892 4.43644 19.7943C4.53291 19.7343 4.63397 19.6808 4.72515 19.6132C5.07891 19.3505 5.42952 19.0831 5.85354 18.7425ZM4.26378 23.1002C4.3132 23.2505 4.33554 23.5119 4.41639 23.5331C4.98291 23.6821 5.94402 23.1616 6.17241 22.611C6.20076 22.5428 6.19002 22.4144 6.14534 22.3674C6.09418 22.3136 5.96802 22.278 5.90352 22.3063C5.37718 22.5364 4.85762 22.7832 4.26378 23.1002ZM5.92586 26.7817C5.99202 26.7129 6.07839 26.6553 6.12015 26.5731C6.20976 26.3965 6.27639 26.2072 6.35241 26.0231C6.2036 26.1326 6.02431 26.2168 5.91489 26.3592C5.81597 26.4878 5.36249 26.6315 5.92586 26.7817ZM2.74625 23.4758C2.84257 23.3999 2.98617 23.3409 3.01917 23.2421C3.04223 23.1729 2.91402 23.0492 2.85338 22.9499C2.8177 23.0751 2.78201 23.2004 2.74625 23.4758Z" fill="white"/>
</svg>

<svg width="12" height="32" fill="none" xmlns="http://www.w3.org/2000/svg"><path d="M8.202 1.124a.86.86 0 0 1 .223-.112C9.66.648 9.68.65 9.535 2.062c-.172 1.672-.341 3.346-.587 5.007-.182 1.23-.51 2.436-.726 3.662-.136.779-.173 1.576-.275 2.362-.283 2.18-.577 4.357-.864 6.536-.1.758-.199 1.518-.285 2.279-.016.137.033.283.052.425.133-.078.279-.14.398-.236 1.112-.899 2.201-1.83 3.344-2.684.238-.177.734-.205.998-.068.374.194.561.626.261 1.09-.417.646-.758 1.366-1.265 1.926-2.422 2.677-4.892 5.308-7.339 7.961-.39.424-.74.887-1.132 1.31-.098.105-.34.215-.415.163-.127-.087-.223-.293-.247-.462-.3-2.152-.582-4.306-.876-6.46-.186-1.369-.386-2.737-.572-4.106a.706.706 0 0 1 .053-.35c.214-.509.431-1.017.67-1.513.082-.169.23-.303.347-.452.123.165.287.313.364.5.351.85.67 1.713 1.02 2.563.079.192.2.44.36.502.178.069.463.196.523-.299.298-2.463.63-4.922 1.002-7.375.35-2.318.757-4.626 1.15-6.937.23-1.35.428-2.71.737-4.04.247-1.063.875-1.864 1.971-2.242Zm-.975 11.082c.096-.582.196-1.163.284-1.747.013-.085-.037-.18-.058-.271-.027.03-.05.068-.083.092-.353.26-.68.665-1.067.741-.571.113-.685.527-.796.933-.154.565-.213 1.159-.3 1.742-.016.114-.003.323.043.339a.515.515 0 0 0 .38-.03c.278-.155.515-.416.805-.507.573-.18.828-.536.792-1.292ZM6.07 14.76c-.385.296-.853.528-1.13.91-.224.307-.24.792-.306 1.206-.033.208.03.432.049.65.181-.079.37-.143.542-.24.178-.1.332-.25.513-.343.719-.37 1.39-.748 1.212-1.792-.049-.283.052-.593.085-.89-.297.141-.595.283-.965.5ZM7.371 9.2c.29-.621.583-1.24.863-1.866.06-.133.069-.291.1-.438-.163.054-.345.076-.486.167-.232.15-.414.421-.66.506-.907.312-1.142 1.12-1.388 1.923-.045.149.01.332.019.499.163-.046.34-.065.488-.143.338-.175.662-.38 1.064-.648Zm-2.24 11.346c-.265.175-.614.293-.773.541-.186.29-.206.695-.299 1.05.24-.08.48-.153.717-.24.25-.093.492-.21.743-.297.44-.155 1.048-1.145.81-1.43-.385-.457-.647.248-1.012.229-.037-.002-.076.046-.186.147ZM6.72 5.669c-.12.273-.267.538-.351.823-.044.15.02.333.035.502.133-.07.273-.129.398-.212.325-.215.619-.5.968-.65.708-.304.628-.974.742-1.557.005-.026-.254-.172-.301-.136-.484.37-.949.766-1.491 1.23Zm.361-2.48c-.048.23-.098.458-.144.687-.03.143-.054.288-.08.433.164-.065.362-.09.485-.203.357-.33.737-.66 1.006-1.062.193-.29.231-.695.313-1.055.013-.059-.11-.214-.172-.216-.389-.012-1.307.83-1.408 1.417ZM5.854 18.743c.505-.118.802-.42.792-.984-.002-.117-.035-.234-.054-.351-.099.042-.204.073-.296.127-.45.262-.886.555-1.349.788-.484.245-.657.632-.608 1.157.01.107.064.21.097.315.097-.06.198-.113.29-.18.353-.264.704-.53 1.128-.872ZM4.264 23.1c.05.15.072.412.152.433.567.15 1.528-.371 1.756-.922.029-.068.018-.197-.027-.244-.05-.053-.177-.089-.241-.06-.527.23-1.046.476-1.64.793Zm1.662 3.682c.066-.07.152-.127.194-.209.09-.177.156-.366.232-.55-.148.11-.328.194-.437.336-.099.129-.553.272.01.423Zm-3.18-3.306c.097-.076.24-.135.273-.234.023-.07-.105-.193-.166-.292-.035.125-.071.25-.107.526Z" fill="#fff"/></svg>
